X: 20522
T: QUADRILLE
%R: jig
B: W. Hamilton "Universal Tune-Book" Vol. 2 Glasgow 1846 p.52 #2
S: http://s3-eu-west-1.amazonaws.com/itma.dl.printmaterial/book_pdfs/hamiltonvol2web.pdf
Z: 2016 John Chambers <jc:trillian.mit.edu>
M: 6/8
L: 1/8
K: G
% - - - - - - - - - - - - - - - - - - - - - - - - -
G |\
B2A B2c | B2A G2D | G2A B2c | B2B A2A |\
A2^G A2B | A2G F2D | F2G A2c | B2A G2 |] D |\
E2E D2D | D2B G2B | d2^c d2A | c2E G2D |
E2E D2G | D2B G2B | d2^c d2A | c2E G2D |\
B2A G2c | B2A G2D | G2A B2c | B2B A2A |\
A2^G A2B | A2G F2D | F2G A2c | B2A G2 |]
% - - - - - - - - - - - - - - - - - - - - - - - - -

%%sep 1 1 500
%%sep 1 1 500

